packages/tokens/icons/chartPie/size32Px.svg

<svg viewBox="0 0 32 32" fill="none" xmlns="http://www.w3.org/2000/svg" width="1em" height="1em"><path d="M17.9586 3.53936C23.5449 4.00008 27.9999 8.45506 28.4606 14.0414C28.4798 14.2735 28.2877 14.5 28 14.5L18 14.5C17.7239 14.5 17.5 14.2761 17.5 14V4C17.5 3.71229 17.7265 3.52022 17.9586 3.53936Z" stroke="currentColor" stroke-linejoin="round"/><path d="M28.4636 16.9621C27.9726 23.4158 22.5798 28.5 16 28.5C9.09644 28.5 3.5 22.9036 3.5 16C3.5 9.4202 8.58417 4.02739 15.0379 3.53645C15.2737 3.51852 15.5 3.71342 15.5 4L15.5 15C15.5 15.8284 16.1716 16.5 17 16.5L28 16.5C28.2866 16.5 28.4815 16.7263 28.4636 16.9621Z" stroke="currentColor" stroke-linejoin="round"/></svg>

<svg xmlns="http://www.w3.org/2000/svg" fill="none" viewBox="0 0 32 32" width="1em" height="1em"><path stroke="currentColor" stroke-linejoin="round" d="M17.959 3.54c5.586.46 10.04 4.914 10.501 10.5.019.232-.173.459-.461.459H18a.5.5 0 0 1-.5-.5V4c0-.288.227-.48.459-.46Z"/><path stroke="currentColor" stroke-linejoin="round" d="M28.464 16.962C27.973 23.416 22.58 28.5 16 28.5 9.096 28.5 3.5 22.904 3.5 16c0-6.58 5.084-11.973 11.538-12.464.236-.017.462.177.462.464v11a1.5 1.5 0 0 0 1.5 1.5h11c.287 0 .482.226.464.462Z"/></svg>
